app/images/icons/heart.svg

<svg width="19" height="18" viewBox="0 0 19 18" fill="none" xmlns="http://www.w3.org/2000/svg">
<path d="M16.6711 2.39072C15.7684 1.42044 14.5035 0.868359 13.1782 0.866313C11.8519 0.867848 10.5857 1.41963 9.68158 2.3901L9.37346 2.71569L9.06533 2.3901C7.27135 0.45929 4.25178 0.348407 2.32101 2.14238C2.23545 2.22191 2.15282 2.3045 2.0733 2.3901C0.170229 4.44279 0.170229 7.61512 2.0733 9.66781L8.92064 16.8888C9.15754 17.1389 9.55231 17.1496 9.80241 16.9127C9.81059 16.9049 9.81856 16.897 9.82631 16.8888L16.6712 9.66781C18.5741 7.61534 18.5741 4.44319 16.6711 2.39072ZM15.7686 8.80893H15.768L9.37346 15.5534L2.97834 8.80893C1.52451 7.24048 1.52451 4.81681 2.97834 3.24836C4.2986 1.81741 6.52894 1.72768 7.9599 3.04794C8.02937 3.11204 8.09622 3.17889 8.16032 3.24836L8.92064 4.05049C9.1712 4.29945 9.57574 4.29945 9.82631 4.05049L10.5866 3.24898C11.9069 1.81803 14.1372 1.72831 15.5682 3.04856C15.6377 3.11266 15.7045 3.17951 15.7686 3.24898C17.2351 4.81991 17.2458 7.24801 15.7686 8.80893Z" fill="#2A364E"/>
</svg>

<svg width="19" height="18" fill="none" xmlns="http://www.w3.org/2000/svg"><path d="M16.67 2.4a4.78 4.78 0 0 0-6.99-.01l-.3.33-.31-.33a4.77 4.77 0 0 0-7 0 5.35 5.35 0 0 0 0 7.28l6.85 7.22a.62.62 0 0 0 .9 0l6.85-7.22a5.35 5.35 0 0 0 0-7.28Zm-.9 6.4-6.4 6.75-6.4-6.74a4.09 4.09 0 0 1 0-5.56 3.53 3.53 0 0 1 5.19 0l.76.8c.25.25.66.25.9 0l.77-.8a3.53 3.53 0 0 1 5.18 0 4.05 4.05 0 0 1 0 5.56Z" fill="#2A364E"/></svg>
